Hatter-kde/actions/22/kmouth-phresebook-new.svg

<?xml version="1.0" encoding="UTF-8"?>
<svg viewBox="0 0 22 22" xmlns="http://www.w3.org/2000/svg">
 <defs id="defs3051">
  <style id="current-color-scheme" type="text/css">.ColorScheme-Text {
        color:#363636;
      }</style>
 </defs>
 <path class="ColorScheme-Text" d="m8 4v3h-4v8l3 3v-3h9v-3h1v3l3-3v-8h-12zm1 1h10v6h-10v-6zm-4 3h3v4h7v2h-10v-6zm12 8v2h-2v1h2v2h1v-2h2v-1h-2v-2h-1z" fill="currentColor"/>
</svg>

<svg xmlns="http://www.w3.org/2000/svg" viewBox="0 0 22 22">
  <defs id="defs3051">
    <style type="text/css" id="current-color-scheme">
      .ColorScheme-Text {
        color:#363636;
      }
      </style>
  </defs>
 <path 
     style="fill:currentColor;fill-opacity:1;stroke:none" 
     d="M 8 4 L 8 7 L 4 7 L 4 15 L 7 18 L 7 15 L 16 15 L 16 12 L 17 12 L 17 15 L 20 12 L 20 4 L 8 4 z M 9 5 L 19 5 L 19 11 L 9 11 L 9 5 z M 5 8 L 8 8 L 8 12 L 15 12 L 15 14 L 5 14 L 5 8 z M 17 16 L 17 18 L 15 18 L 15 19 L 17 19 L 17 21 L 18 21 L 18 19 L 20 19 L 20 18 L 18 18 L 18 16 L 17 16 z "
     class="ColorScheme-Text"
     />
</svg>
